X:1
T:French Suite VI Allemande
T:BWV 817
T:J. S. Bach
%%score { 1 | 2 }
L:1/8
M:4/4
K:E
V:1 treble nm="Harp"
V:2 bass 
V:1
 B/ | G/A/B/e/ E/e/F/e/ G/A/B/e/ E/e/F/e/ | G/e/f/g/ A/g/f/e/ d/e/f/b/ B/b/=d/b/ | %3
 c/d/e/a/ A/a/c/a/ B/a/e/g/ A/B/c/f/ | G/e/B/e/ F/G/A/d/ e2- e/g/d/f/ | %5
 e/d/c/e/ g/c/e/B/ ^A/G/F/A/ c/F/e/F/ | d/c/B/d/ f/B/d/A/ G/F/E/G/ B/E/d/E/ | %7
 c/d/e/g/ f/e/d/c/ b/^a/g/f/ e/d/e/c/ | d/4c/4de/ d/4c/4d/4c/4d/4c/4B/ Bf df/^A/ | %9
 Bd/G/ AB/F/ G e2 c | ^A f2 d Bg- g/^a/b/g/ | %11
 f/4e/4d/e- e/g/f/e/ d/c/B/g/ B (4:3:4B/4^A/4B/4A/4B/4 | B/c/d/f/ b/f/d/f/ B3 z/ B/ | %13
 G/A/B/e/ E/e/F/e/ G/A/B/e/ E/e/F/e/ | G/e/f/g/ A/g/f/e/ d/e/f/b/ B/b/=d/b/ | %15
 c/d/e/a/ A/a/c/a/ B/a/e/g/ A/B/c/f/ | G/e/B/e/ F/G/A/d/ e2- e/g/d/f/ | %17
 e/d/c/e/ g/c/e/B/ ^A/G/F/A/ c/F/e/F/ | d/c/B/d/ f/B/d/A/ G/F/E/G/ B/E/d/E/ | %19
 c/d/e/g/ f/e/d/c/ b/^a/g/f/ e/d/e/c/ | d/4c/4de/ d/4c/4d/4c/4d/4c/4B/ Bf df/^A/ | %21
 Bd/G/ AB/F/ G e2 c | ^A f2 d Bg- g/^a/b/g/ | %23
 f/4e/4d/e- e/g/f/e/ d/c/B/g/ B (4:3:4B/4^A/4B/4A/4B/4 | B/c/d/f/ b/f/d/f/ B3 z/ f/ | %25
 d/e/f/b/ B/b/c/b/ d/e/f/b/ B/b/c/b/ | d/f/g/a/ B/a/g/f/ g/f/e/g/ B/g/G/g/ | %27
 ^A/^B/c/f/ d/f/B/f/ e/d/c/e/ G/e/E/e/ | F/G/A/=d/ B/d/G/d/ c/B/A/c/ e/c/a/c/ | %29
 =d/e/f/a/ d/f/A/d/ F/E/=D/F/ A/F/d/A/ | d/e/f/a/ d/f/^B/d/ F/E/D/F/ B/F/d/B/ | %31
 g/f/e/g/ c/g/A/g/ f/e/d/f/ ^B/f/G/f/ | e/d/c/e/ G/c/d/^B/ cg/e/ ce/G/ | Ac/A/ FA/C/ Df/d/ Bd/F/ | %34
 GB/G/ EG/B,/ C A2 F | D B2 G Ec- c/d/e/c/ | A/G/A- A/c/B/A/ G/F/E/c/ G/4F/4G/4F/4G/4F/4E/ | %37
 E/F/G/A/ B/E/=d/E/ c/B/A/c/ e/A/c/G/ | F/G/^A/B/ c/F/e/F/ d/c/B/d/ f/d/a/f/ | %39
 d/e/f/a/ g/f/e/d/ b/a/g/f/ e/d/c/B/ | e/B/c/A/ G/e/F/d/ e3 z/ f/ | %41
 d/e/f/b/ B/b/c/b/ d/e/f/b/ B/b/c/b/ | d/f/g/a/ B/a/g/f/ g/f/e/g/ B/g/G/g/ | %43
 ^A/^B/c/f/ d/f/B/f/ e/d/c/e/ G/e/E/e/ | F/G/A/=d/ B/d/G/d/ c/B/A/c/ e/c/a/c/ | %45
 =d/e/f/a/ d/f/A/d/ F/E/=D/F/ A/F/d/A/ | d/e/f/a/ d/f/^B/d/ F/E/D/F/ B/F/d/B/ | %47
 g/f/e/g/ c/g/A/g/ f/e/d/f/ ^B/f/G/f/ | e/d/c/e/ G/c/d/^B/ cg/e/ ce/G/ | Ac/A/ FA/C/ Df/d/ Bd/F/ | %50
 GB/G/ EG/B,/ C A2 F | D B2 G Ec- c/d/e/c/ | A/G/A- A/c/B/A/ G/F/E/c/ G/4F/4G/4F/4G/4F/4E/ | %53
 E/F/G/A/ B/E/=d/E/ c/B/A/c/ e/A/c/G/ | F/G/^A/B/ c/F/e/F/ d/c/B/d/ f/d/a/f/ | %55
 d/e/f/a/ g/f/e/d/ b/a/g/f/ e/d/c/B/ | e/B/c/A/ G/e/F/d/ !fermata!e3 z/ z/ |] %57
V:2
 z/ | z E,G,B, EE,G,B, | EDCA, B,A,G,E, | A,G,F,E, D,E,C,A,, | %4
 B,,G,,A,,B,, z/ E,,/G,,/B,,/ E,^B,, | C,G,E,C, F,F,,^A,,C, | B,,F,D,B,, E,E,,G,,B,, | %7
 E,C,D,E, F,G,^A,F, | B,E,F,F,, B,,/C,/D,/F,/ B,/F,/B,/E,/ | %9
 D,/E,/F,/B,/ B,,/B,/D,/B,/ E,/F,/G,/C/ C,/C/E,/C/ | %10
 F,/G,/^A,/D/ D,/D/F,/D/ G,/A,/B,/E/ E,/E/G,/E/ | ^A,/B,/C/F/ F,/F/A,/F/ B,G,E,F, | %12
 B,4- B,/F,/D,/F,/ B,,3/2 z/ | z E,G,B, EE,G,B, | EDCA, B,A,G,E, | A,G,F,E, D,E,C,A,, | %16
 B,,G,,A,,B,, z/ E,,/G,,/B,,/ E,^B,, | C,G,E,C, F,F,,^A,,C, | B,,F,D,B,, E,E,,G,,B,, | %19
 E,C,D,E, F,G,^A,F, | B,E,F,F,, B,,/C,/D,/F,/ B,/F,/B,/E,/ | %21
 D,/E,/F,/B,/ B,,/B,/D,/B,/ E,/F,/G,/C/ C,/C/E,/C/ | %22
 F,/G,/^A,/D/ D,/D/F,/D/ G,/A,/B,/E/ E,/E/G,/E/ | ^A,/B,/C/F/ F,/F/A,/F/ B,G,E,F, | %24
 B,4- B,/F,/D,/F,/ B,,3/2 z/ | z B,,D,F, B,B,,D,F, | B,F,D,B,, E,E,, z E- | ED/C/ ^B,G, CC, z C- | %28
 CB,/A,/ G,E, A,A,, z A,/=G,/ | F,A,/=G,/ F,F,, z A,/G,/ F,A,/G,/ | F,F,, z F,/G,/ A,F, D,G,/F,/ | %31
 E,G,/F,/ E,F,/E,/ D,F,/E,/ D,E,/D,/ | C,F,G,G,, C,/D,/E,/G,/ C/G,/C/E,/ | %33
 F,/G,/A,/C/ A,/C/F,/A,/ B,,/C,/D,/F,/ B,/F,/B,/D,/ | %34
 E,/F,/G,/B,/ G,/B,/E,/G,/ A,,/B,,/C,/F,/ F,,/F,/A,,/F,/ | %35
 B,,/C,/D,/G,/ G,,/G,/B,,/G,/ C,/D,/E,/A,/ A,,/A,/C,/A,/ | D,/E,/F,/B,/ B,,/B,/D,/B,/ E,C,A,,B,, | %37
 E,,B,G,E, A,A,,C,E, | ^A,,C^A,F, B,B,,D,F, | B,,F,D,B,, A,,A, z F, | %40
 G,A,B,B,, E,/E,,/G,,/B,,/ E,3/2 z/ | z B,,D,F, B,B,,D,F, | B,F,D,B,, E,E,, z E- | %43
 ED/C/ ^B,G, CC, z C- | CB,/A,/ G,E, A,A,, z A,/=G,/ | F,A,/=G,/ F,F,, z A,/G,/ F,A,/G,/ | %46
 F,F,, z F,/G,/ A,F, D,G,/F,/ | E,G,/F,/ E,F,/E,/ D,F,/E,/ D,E,/D,/ | %48
 C,F,G,G,, C,/D,/E,/G,/ C/G,/C/E,/ | F,/G,/A,/C/ A,/C/F,/A,/ B,,/C,/D,/F,/ B,/F,/B,/D,/ | %50
 E,/F,/G,/B,/ G,/B,/E,/G,/ A,,/B,,/C,/F,/ F,,/F,/A,,/F,/ | %51
 B,,/C,/D,/G,/ G,,/G,/B,,/G,/ C,/D,/E,/A,/ A,,/A,/C,/A,/ | D,/E,/F,/B,/ B,,/B,/D,/B,/ E,C,A,,B,, | %53
 E,,B,G,E, A,A,,C,E, | ^A,,C^A,F, B,B,,D,F, | B,,F,D,B,, A,,A, z F, | %56
 G,A,B,B,, E,/E,,/G,,/B,,/ !fermata!E,3/2 z/ |] %57

